src/images/Nutanix/Process4.svg

<svg fill="none" height="215" viewBox="0 0 215 215" width="215" xmlns="http://www.w3.org/2000/svg"><rect fill="#034ea2" height="215" rx="20" width="215"/><g fill="#fbfbfb"><path d="m83.7106 44.0147c1.5609-6.8792 7.7131-12.0147 15.0647-12.0147h10.2987c7.351 0 13.503 5.1355 15.064 12.0147h20.98c7.583 0 13.731 6.1477 13.731 13.7311v109.8492c0 7.583-6.148 13.731-13.731 13.731h-82.3869c-7.5835 0-13.7311-6.148-13.7311-13.731v-109.8492c0-7.5834 6.1476-13.7311 13.7311-13.7311zm-.3828 13.7311h-20.5967v109.8492h82.3869v-109.8492h-20.597v12.0148h-41.1932zm30.8952 1.7164v-12.0147c0-2.8438-2.306-5.1492-5.149-5.1492h-10.2987c-2.8438 0-5.1492 2.3054-5.1492 5.1492v12.0147z"/><path clip-rule="evenodd" d="m73.0293 78.3425h37.7607v10.2983h-37.7607z" fill-rule="evenodd"/><path clip-rule="evenodd" d="m73.0293 98.9392h54.9247v10.2988h-54.9247z" fill-rule="evenodd"/><path clip-rule="evenodd" d="m73.0293 119.536h54.9247v10.298h-54.9247z" fill-rule="evenodd"/><path clip-rule="evenodd" d="m73.0293 140.132h54.9247v10.299h-54.9247z" fill-rule="evenodd"/></g></svg>

<svg width="215" height="215" viewBox="0 0 215 215" fill="none" xmlns="http://www.w3.org/2000/svg">
<rect width="215" height="215" rx="20" fill="#034EA2"/>
<path d="M83.7106 44.0147C85.2715 37.1355 91.4237 32 98.7753 32H109.074C116.425 32 122.577 37.1355 124.138 44.0147H145.118C152.701 44.0147 158.849 50.1624 158.849 57.7458V167.595C158.849 175.178 152.701 181.326 145.118 181.326H62.7311C55.1476 181.326 49 175.178 49 167.595V57.7458C49 50.1624 55.1476 44.0147 62.7311 44.0147H83.7106ZM83.3278 57.7458H62.7311V167.595H145.118V57.7458H124.521V69.7606H83.3278V57.7458ZM114.223 59.4622V47.4475C114.223 44.6037 111.917 42.2983 109.074 42.2983H98.7753C95.9315 42.2983 93.6261 44.6037 93.6261 47.4475V59.4622H114.223Z" fill="#FBFBFB"/>
<path fill-rule="evenodd" clip-rule="evenodd" d="M73.0293 78.3425H110.79V88.6408H73.0293V78.3425Z" fill="#FBFBFB"/>
<path fill-rule="evenodd" clip-rule="evenodd" d="M73.0293 98.9392H127.954V109.238H73.0293V98.9392Z" fill="#FBFBFB"/>
<path fill-rule="evenodd" clip-rule="evenodd" d="M73.0293 119.536H127.954V129.834H73.0293V119.536Z" fill="#FBFBFB"/>
<path fill-rule="evenodd" clip-rule="evenodd" d="M73.0293 140.132H127.954V150.431H73.0293V140.132Z" fill="#FBFBFB"/>
</svg>
